X: 34182
T: Reel Of Eiscir Riada
R: reel
M: 4/4
K: Gmajor
|:GABG A2 (3Bcd|eged BAGA|BDEG A2 (3Bcd|~e2 BA GedB|
DG~G2 A2 (3Bcd|eged BAGA|BE~E2 BEGA|(3Bcd AB ~G3 E:|
|:dg~g2 bgag|egdc BG (3Bcd|eA~A2 eABd|edef gedB|
dg~g2 a2 ba|gedB A2 GA|BE~E2 BEGA|(3Bcd AB ~G3 e:|

